X:32
T:Temperance Reel
R:reel
Z: Transcribed to abc by Mary Lou Knack
M:C|
K:G
(3DEF|:\
"G"G2GF GABc| dBge dBAc| "Em"BEED EFGA| "D"BGAF GFED|
"G"G2GF GABc| dBge dBAc| "Em"BEED EFGA|1 "D"BdAF "G"G2(3DEF :|2 "D"BdAF "G"G2|]
|:\
B2| "Em"Beed e3f| geaf gfed| "D"Bdde d3e| geaf gfed|
    "Em"Beed e3f| geaf gfed| BEED EFGA |1 "D"BdAF "G"G2 :|2"D"BGAF "G"GFED|]
%%newpage
%%text 13
